packages/ui-icons/svg/Solid/drop-down.svg

<svg viewBox="0 0 1920 1920" version="1.1" xmlns="http://www.w3.org/2000/svg">
    <path d="M960,1491.61412 L524.724706,1056.33882 L604.687059,976.489412 L903.529412,1275.44471 L903.529412,451.764706 L1016.47059,451.764706 L1016.47059,1275.44471 L1315.31294,976.489412 L1395.27529,1056.33882 L960,1491.61412 Z M960,0 C430.644706,0 0,430.644706 0,960 C0,1489.35529 430.644706,1920 960,1920 C1489.35529,1920 1920,1489.35529 1920,960 C1920,430.644706 1489.35529,0 960,0 L960,0 Z" stroke="none" stroke-width="1" fill-rule="evenodd"/>
</svg>

<svg viewBox="0 0 1920 1920" xmlns="http://www.w3.org/2000/svg">
    <path d="M960 1491.614 524.725 1056.34l79.962-79.85 298.842 298.956v-823.68h112.942v823.68l298.842-298.956 79.962 79.85L960 1491.614ZM960 0C430.645 0 0 430.645 0 960s430.645 960 960 960 960-430.645 960-960S1489.355 0 960 0Z" fill-rule="evenodd"/>
</svg>
